X: 9657
T: Days Around Lahinch
R: reel
M: 4/4
K: Dmajor
FA|:d2BA FE~E2|(3FEDFA dfed|d2BA FE~E2|FABA FE~E2|
B2AG FE~E2|(3FEDFA dfed|d2BA FE~E2|FAEA D3A:|
|:DEFA d3f|edef dBAF|DEFA dfed|B2AF FEFE|DEFA d3f|
edef dBAe|edef dBAF|1 EAGE EDAF:|2 EAGE EDFA||

